X: 41339
T: Turlutte Acadienne
R: reel
M: 4/4
K: Gmajor
GFG|:A2A2 d2cA|B2G2- GBAG|FGAB A2GE|F2D2- DGFG|
A2A2 d2cA|B2G2- GBAG|1 FGAA B2G2-|GGFG:|2 FGAA B2G2||
|:d2ce d2cA|B2G2- G=fef|d2cA B2G2-|GBAG FGAB|
A2GE F2D2-|D4|d2ce d2cA|B2G2- G=fef|d2cA B2G2-|GGFG||

